svg/u1f921.svg

<svg viewBox="0 0 128 128" xmlns="http://www.w3.org/2000/svg">
  <defs>
    <radialGradient id="SVGID_1_" cx="99.4683" cy="-98.249805" gradientTransform="matrix(1 0 0 -0.73 0 0)" gradientUnits="userSpaceOnUse" r="20.97">
      <stop offset="0" stop-color="#ED7770"/>
      <stop offset="0.08" stop-color="#ED7770" stop-opacity="0.97"/>
      <stop offset="0.21" stop-color="#ED7770" stop-opacity="0.88"/>
      <stop offset="0.35" stop-color="#ED7770" stop-opacity="0.74"/>
      <stop offset="0.52" stop-color="#ED7770" stop-opacity="0.55"/>
      <stop offset="0.71" stop-color="#ED7770" stop-opacity="0.29"/>
      <stop offset="0.9" stop-color="#ED7770" stop-opacity="0"/>
    </radialGradient>
    <radialGradient id="SVGID_2_" cx="29.22" cy="-98.249805" gradientTransform="matrix(1 0 0 -0.73 0 0)" gradientUnits="userSpaceOnUse" r="20.97">
      <stop offset="0" stop-color="#ED7770"/>
      <stop offset="0.08" stop-color="#ED7770" stop-opacity="0.97"/>
      <stop offset="0.21" stop-color="#ED7770" stop-opacity="0.88"/>
      <stop offset="0.35" stop-color="#ED7770" stop-opacity="0.74"/>
      <stop offset="0.52" stop-color="#ED7770" stop-opacity="0.55"/>
      <stop offset="0.71" stop-color="#ED7770" stop-opacity="0.29"/>
      <stop offset="0.9" stop-color="#ED7770" stop-opacity="0"/>
    </radialGradient>
    <linearGradient id="SVGID_4_" gradientTransform="matrix(1 0 0 -1 0 0)" gradientUnits="userSpaceOnUse" x1="103.3409" x2="103.3409" y1="-3.72" y2="-43.82">
      <stop offset="0" stop-color="#FF4900"/>
      <stop offset="1" stop-color="#E30C00"/>
    </linearGradient>
    <radialGradient id="clown-face_1_" cx="63.52" cy="62.8801" gradientUnits="userSpaceOnUse" r="56.9499">
      <stop offset="0.5" stop-color="#FFFFFF"/>
      <stop offset="0.76" stop-color="#FDFDFD"/>
      <stop offset="0.87" stop-color="#F6F6F6"/>
      <stop offset="0.96" stop-color="#E9E9E9"/>
      <stop offset="1" stop-color="#E0E0E0"/>
    </radialGradient>
    <linearGradient id="mouth_1_" gradientTransform="matrix(1 0 0 -1 0 0)" gradientUnits="userSpaceOnUse" x1="36.7421" x2="91.7579" y1="-92.9399" y2="-92.9399">
      <stop offset="0" stop-color="#FF4900"/>
      <stop offset="1" stop-color="#E30C00"/>
    </linearGradient>
    <radialGradient id="nose_1_" cx="65.94" cy="-61.13" gradientTransform="matrix(1 0 0 -1 0 0)" gradientUnits="userSpaceOnUse" r="20">
      <stop offset="0" stop-color="#FF4900"/>
      <stop offset="0.38" stop-color="#FE4700"/>
      <stop offset="0.59" stop-color="#FA3F00"/>
      <stop offset="0.76" stop-color="#F43100"/>
      <stop offset="0.9" stop-color="#EB1E00"/>
      <stop offset="1" stop-color="#E30C00"/>
    </radialGradient>
    <linearGradient id="SVGID_3_" gradientTransform="matrix(1 0 0 -1 0 0)" gradientUnits="userSpaceOnUse" x1="25.134" x2="25.134" y1="-3.72" y2="-43.82">
      <stop offset="0" stop-color="#FF4900"/>
      <stop offset="1" stop-color="#E30C00"/>
    </linearGradient>
  </defs>
  <path id="clown-face" d="M63.52,7 C33.43,7 5.52,27 5.52,62.83 C5.52,98.92 33.39,118.76 63.52,118.76 C93.65,118.76 121.52,99.41 121.52,62.83 C121.39,26.59 93.52,7 63.52,7 Z" fill="url(#clown-face_1_)"/>
  <path d="M118.74,71.77 A19.27 14.77 0 1 1 80.2,71.77 A19.27 14.77 0 1 1 118.74,71.77 Z" fill="url(#SVGID_1_)"/>
  <path d="M48.49,71.77 A19.27 14.77 0 1 1 9.95,71.77 A19.27 14.77 0 1 1 48.49,71.77 Z" fill="url(#SVGID_2_)"/>
  <path id="nose" d="M78.62,66.94 A14.62 14.62 0 1 1 49.38,66.94 A14.62 14.62 0 1 1 78.62,66.94 Z" fill="url(#nose_1_)"/>
  <path d="M38.63,5.24 C34.92,5.22 31.65,7.67 30.63,11.24 C24.23,6.48 15.19,7.81 10.43,14.2 C8.57,16.7 7.57,19.74 7.57,22.87 C7.57,24.83 7.96,26.76 8.73,28.56 C3.83,31.1 1.91,37.14 4.45,42.04 C6.99,46.94 13.03,48.86 17.93,46.32 C21.24,44.6 23.33,41.18 23.33,37.45 C23.33,37.39 23.33,37.33 23.33,37.27 C30.78,36.6 36.49,30.35 36.49,22.87 C36.49,22.42 36.49,21.97 36.42,21.53 C37.14,21.74 37.89,21.84 38.64,21.84 C43.22,21.84 46.94,18.12 46.94,13.54 C46.94,8.96 43.22,5.24 38.64,5.24 L38.63,5.24 Z" fill="url(#SVGID_3_)"/>
  <path d="M111.49,29.67 C116.82,38.27 119.6,48.51 119.6,59.9 C119.6,76.8 113.5,91.1 102,101.3 C91.4,110.6 77,115.8 61.6,115.8 C43.54,115.8 24.6,108.45 13.42,92.86 C24.18,110.52 44.42,118.8 63.6,118.8 C79,118.8 93.4,113.6 104,104.3 C115.5,94.1 121.6,79.8 121.6,62.9 C121.6,50.16 118.13,38.84 111.49,29.67 Z" fill="#ADBCC3"/>
  <path d="M119.71,28.56 C122.85,21.22 119.44,12.72 112.09,9.58 C110.29,8.81 108.36,8.42 106.41,8.42 C103.3,8.42 100.28,9.42 97.79,11.29 C96.54,6.88 91.96,4.33 87.55,5.57 C83.14,6.81 80.59,11.4 81.83,15.81 C82.84,19.37 86.08,21.83 89.78,21.84 C90.53,21.84 91.27,21.73 91.99,21.53 C91.96,21.98 91.96,22.42 91.99,22.87 C91.99,30.35 97.7,36.6 105.15,37.27 C105.15,37.33 105.15,37.39 105.15,37.45 C105.16,42.97 109.64,47.45 115.16,47.44 C120.68,47.43 125.16,42.95 125.15,37.43 C125.15,33.7 123.06,30.28 119.75,28.56 L119.71,28.56 Z" fill="url(#SVGID_4_)"/>
  <path d="M44,40.94 L44,40.94 C39.81,40.94 36,44.48 36,50.36 C36,56.24 39.81,59.77 44,59.77 L44,59.77 C48.2,59.77 52,56.23 52,50.36 C52,44.49 48.24,40.94 44,40.94 Z" fill="#422B0D"/>
  <path d="M43.65,44.87 L43.65,44.87 C42.23,44.19 40.52,44.79 39.83,46.21 C39.3,47.32 39.54,48.65 40.43,49.51 L40.43,49.51 C41.85,50.19 43.56,49.59 44.25,48.17 C44.78,47.06 44.54,45.73 43.65,44.87 Z" fill="#896024"/>
  <path d="M85.37,40.94 L85.37,40.94 C81.18,40.94 77.37,44.48 77.37,50.36 C77.37,56.24 81.18,59.77 85.37,59.77 L85.37,59.77 C89.56,59.77 93.37,56.23 93.37,50.36 C93.37,44.49 89.56,40.94 85.37,40.94 Z" fill="#422B0D"/>
  <path d="M85,44.87 L85,44.87 C83.58,44.19 81.87,44.79 81.18,46.21 C80.65,47.32 80.89,48.65 81.78,49.51 L81.78,49.51 C83.2,50.19 84.91,49.59 85.6,48.17 C86.13,47.06 85.89,45.73 85,44.87 Z" fill="#896024"/>
  <path d="M64.25,101.44 C51.51,101.44 42.43,94.83 39.7,90.67 C38.67,89.34 38.45,87.54 39.14,86 C39.67,85.03 40.7,84.43 41.81,84.44 C42.22,84.44 42.63,84.51 43.02,84.64 C49.92,86.72 57.09,87.75 64.3,87.71 C71.47,87.75 78.61,86.71 85.48,84.64 C85.87,84.51 86.28,84.45 86.69,84.44 C87.8,84.43 88.83,85.03 89.36,86 C90.05,87.54 89.83,89.34 88.8,90.67 C86.07,94.83 77,101.44 64.25,101.44 Z" fill="#422B0D"/>
  <path d="M64.25,103.44 Q55.136,103.44 47.303,99.392 Q40.887,96.076 38.07,91.831 Q35.721,88.74 37.315,85.182 L37.347,85.11 L37.385,85.041 Q38.821,82.413 41.828,82.44 Q42.729,82.44 43.622,82.733 Q53.707,85.769 64.289,85.71 Q74.789,85.768 84.879,82.732 Q85.701,82.464 86.641,82.441 Q89.679,82.413 91.115,85.041 L91.153,85.11 L91.185,85.182 Q92.779,88.74 90.43,91.831 Q87.612,96.077 81.201,99.392 Q73.37,103.44 64.25,103.44 Z M64.25,99.44 Q72.397,99.44 79.364,95.838 Q84.891,92.981 87.128,89.573 L87.171,89.507 L87.219,89.445 Q88.138,88.259 87.57,86.898 Q87.284,86.435 86.739,86.439 Q86.38,86.448 86.112,86.537 L86.085,86.547 L86.057,86.555 Q75.381,89.772 64.311,89.71 Q53.115,89.772 42.443,86.555 L42.415,86.547 L42.388,86.537 Q42.095,86.44 41.792,86.44 Q41.218,86.435 40.93,86.899 Q40.363,88.259 41.281,89.445 L41.329,89.507 L41.372,89.573 Q43.608,92.979 49.139,95.838 Q56.109,99.44 64.25,99.44 Z" fill="url(#mouth_1_)"/>
</svg>

<svg viewBox="0 0 128 128" xmlns="http://www.w3.org/2000/svg">
  <g id="faces">
    <radialGradient id="clown-face_1_" cx="63.52" cy="2521.55" gradientTransform="matrix(1 0 0 1 0 -2458.6699)" gradientUnits="userSpaceOnUse" r="56.9499">
      <stop offset="0.5" stop-color="#FFFFFF"/>
      <stop offset="0.76" stop-color="#FDFDFD"/>
      <stop offset="0.87" stop-color="#F6F6F6"/>
      <stop offset="0.96" stop-color="#E9E9E9"/>
      <stop offset="1" stop-color="#E0E0E0"/>
    </radialGradient>
    <path id="clown-face" d="M63.52,7c-30.09,0-58,20-58,55.83c0,36.09,27.87,55.93,58,55.93 s58-19.35,58-55.93C121.39,26.59,93.52,7,63.52,7z" fill="url(#clown-face_1_)"/>
    <radialGradient id="SVGID_1_" cx="99.4683" cy="-62.3046" gradientTransform="matrix(1 0 0 -0.73 0 26.24)" gradientUnits="userSpaceOnUse" r="20.97">
      <stop offset="0" stop-color="#ED7770"/>
      <stop offset="0.08" stop-color="#ED7770" stop-opacity="0.97"/>
      <stop offset="0.21" stop-color="#ED7770" stop-opacity="0.88"/>
      <stop offset="0.35" stop-color="#ED7770" stop-opacity="0.74"/>
      <stop offset="0.52" stop-color="#ED7770" stop-opacity="0.55"/>
      <stop offset="0.71" stop-color="#ED7770" stop-opacity="0.29"/>
      <stop offset="0.9" stop-color="#ED7770" stop-opacity="0"/>
    </radialGradient>
    <ellipse cx="99.47" cy="71.77" fill="url(#SVGID_1_)" rx="19.27" ry="14.77"/>
  </g>
  <g id="facial_expressions">
    <g id="clown-face-2">
      <g id="blush">
        <radialGradient id="SVGID_2_" cx="29.22" cy="-62.3046" gradientTransform="matrix(1 0 0 -0.73 0 26.24)" gradientUnits="userSpaceOnUse" r="20.97">
          <stop offset="0" stop-color="#ED7770"/>
          <stop offset="0.08" stop-color="#ED7770" stop-opacity="0.97"/>
          <stop offset="0.21" stop-color="#ED7770" stop-opacity="0.88"/>
          <stop offset="0.35" stop-color="#ED7770" stop-opacity="0.74"/>
          <stop offset="0.52" stop-color="#ED7770" stop-opacity="0.55"/>
          <stop offset="0.71" stop-color="#ED7770" stop-opacity="0.29"/>
          <stop offset="0.9" stop-color="#ED7770" stop-opacity="0"/>
        </radialGradient>
        <ellipse cx="29.22" cy="71.77" fill="url(#SVGID_2_)" rx="19.27" ry="14.77"/>
      </g>
      <g id="prop">
        <radialGradient id="nose_1_" cx="65.94" cy="68.87" gradientTransform="matrix(1 0 0 -1 0 130)" gradientUnits="userSpaceOnUse" r="20">
          <stop offset="0" stop-color="#FF4900"/>
          <stop offset="0.38" stop-color="#FE4700"/>
          <stop offset="0.59" stop-color="#FA3F00"/>
          <stop offset="0.76" stop-color="#F43100"/>
          <stop offset="0.9" stop-color="#EB1E00"/>
          <stop offset="1" stop-color="#E30C00"/>
        </radialGradient>
        <circle id="nose" cx="64" cy="66.94" fill="url(#nose_1_)" r="14.62"/>
        <g id="hair">
          <linearGradient id="SVGID_3_" gradientTransform="matrix(1 0 0 -1 0 130)" gradientUnits="userSpaceOnUse" x1="25.134" x2="25.134" y1="126.28" y2="86.18">
            <stop offset="0" stop-color="#FF4900"/>
            <stop offset="1" stop-color="#E30C00"/>
          </linearGradient>
          <path d="M38.63,5.24c-3.71-0.02-6.98,2.43-8,6c-6.4-4.76-15.44-3.43-20.2,2.96 c-1.86,2.5-2.86,5.54-2.86,8.67c0,1.96,0.39,3.89,1.16,5.69c-4.9,2.54-6.82,8.58-4.28,13.48s8.58,6.82,13.48,4.28 c3.31-1.72,5.4-5.14,5.4-8.87c0-0.06,0-0.12,0-0.18c7.45-0.67,13.16-6.92,13.16-14.4c0-0.45,0-0.9-0.07-1.34 c0.72,0.21,1.47,0.31,2.22,0.31c4.58,0,8.3-3.72,8.3-8.3s-3.72-8.3-8.3-8.3H38.63z" fill="url(#SVGID_3_)"/>
        </g>
      </g>
    </g>
    <path d="M111.49,29.67c5.33,8.6,8.11,18.84,8.11,30.23c0,16.9-6.1,31.2-17.6,41.4 c-10.6,9.3-25,14.5-40.4,14.5c-18.06,0-37-7.35-48.18-22.94c10.76,17.66,31,25.94,50.18,25.94c15.4,0,29.8-5.2,40.4-14.5 c11.5-10.2,17.6-24.5,17.6-41.4C121.6,50.16,118.13,38.84,111.49,29.67z" fill="#ADBCC3"/>
    <linearGradient id="SVGID_4_" gradientTransform="matrix(1 0 0 -1 0 130)" gradientUnits="userSpaceOnUse" x1="103.3409" x2="103.3409" y1="126.28" y2="86.18">
      <stop offset="0" stop-color="#FF4900"/>
      <stop offset="1" stop-color="#E30C00"/>
    </linearGradient>
    <path d="M119.71,28.56c3.14-7.34-0.27-15.84-7.62-18.98c-1.8-0.77-3.73-1.16-5.68-1.16 c-3.11,0-6.13,1-8.62,2.87c-1.25-4.41-5.83-6.96-10.24-5.72s-6.96,5.83-5.72,10.24c1.01,3.56,4.25,6.02,7.95,6.03 c0.75,0,1.49-0.11,2.21-0.31c-0.03,0.45-0.03,0.89,0,1.34c0,7.48,5.71,13.73,13.16,14.4c0,0.06,0,0.12,0,0.18 c0.01,5.52,4.49,10,10.01,9.99c5.52-0.01,10-4.49,9.99-10.01c0-3.73-2.09-7.15-5.4-8.87L119.71,28.56z" fill="url(#SVGID_4_)"/>
    <path d="M44,40.94L44,40.94c-4.19,0-8,3.54-8,9.42s3.81,9.41,8,9.41l0,0c4.2,0,8-3.54,8-9.41 S48.24,40.94,44,40.94z" fill="#422B0D"/>
    <g id="peepers">
      <path d="M43.65,44.87L43.65,44.87c-1.42-0.68-3.13-0.08-3.82,1.34c-0.53,1.11-0.29,2.44,0.6,3.3l0,0 c1.42,0.68,3.13,0.08,3.82-1.34C44.78,47.06,44.54,45.73,43.65,44.87z" fill="#896024"/>
    </g>
    <path d="M85.37,40.94L85.37,40.94c-4.19,0-8,3.54-8,9.42s3.81,9.41,8,9.41l0,0c4.19,0,8-3.54,8-9.41 S89.56,40.94,85.37,40.94z" fill="#422B0D"/>
    <g id="peepers-2">
      <path d="M85,44.87L85,44.87c-1.42-0.68-3.13-0.08-3.82,1.34c-0.53,1.11-0.29,2.44,0.6,3.3l0,0 c1.42,0.68,3.13,0.08,3.82-1.34C86.13,47.06,85.89,45.73,85,44.87z" fill="#896024"/>
    </g>
    <linearGradient id="mouth_1_" gradientTransform="matrix(1 0 0 -1 0 130)" gradientUnits="userSpaceOnUse" x1="36.7421" x2="91.7579" y1="37.0601" y2="37.0601">
      <stop offset="0" stop-color="#FF4900"/>
      <stop offset="1" stop-color="#E30C00"/>
    </linearGradient>
    <path id="mouth" d="M64.25,101.44 c-12.74,0-21.82-6.61-24.55-10.77c-1.03-1.33-1.25-3.13-0.56-4.67c0.53-0.97,1.56-1.57,2.67-1.56c0.41,0,0.82,0.07,1.21,0.2 c6.9,2.08,14.07,3.11,21.28,3.07c7.17,0.04,14.31-1,21.18-3.07c0.39-0.13,0.8-0.19,1.21-0.2c1.11-0.01,2.14,0.59,2.67,1.56 c0.69,1.54,0.47,3.34-0.56,4.67C86.07,94.83,77,101.44,64.25,101.44z" fill="#422B0D" stroke="url(#mouth_1_)" stroke-miterlimit="10" stroke-width="4"/>
  </g>
</svg>
